img/svg-icons/spectacles-alt.svg

<svg xmlns="http://www.w3.org/2000/svg" id="spectacles-alt" viewBox="0 0 60.78 23.83"><path d="M60.78 11.25h-2.29a11.92 11.92 0 0 0-23.24-3 5.69 5.69 0 0 0-9.53 0 11.92 11.92 0 0 0-23.24 3H0v1.49h2.48A11.93 11.93 0 0 0 26.32 12v-.75a4.17 4.17 0 1 1 8.34.1V12a11.93 11.93 0 0 0 11.92 11.87 12.09 12.09 0 0 0 11.91-11.13h2.28v-1.49zM14.5 22.48a10.43 10.43 0 0 1-.1-20.86 10.43 10.43 0 0 1 .1 20.86zm32.08 0A10.43 10.43 0 1 1 57 12a10.43 10.43 0 0 1-10.42 10.48z" transform="translate(0 -.03)"/></svg>

<svg id="spectacles-alt" xmlns="http://www.w3.org/2000/svg" width="60.78" height="23.83" viewBox="0 0 60.78 23.83"><title>spectacles-alt</title><path d="M60.78,11.25H58.49a11.92,11.92,0,0,0-23.24-3,5.69,5.69,0,0,0-9.53,0,11.92,11.92,0,0,0-23.24,3H0v1.49H2.48A11.93,11.93,0,0,0,26.32,12h0V11.25a4.17,4.17,0,1,1,8.34.1V12h0A11.93,11.93,0,0,0,46.58,23.87,12.09,12.09,0,0,0,58.49,12.74h2.28V11.25ZM14.5,22.48a10.43,10.43,0,0,1-.1-20.86A10.43,10.43,0,0,1,14.5,22.48Zm32.08,0A10.43,10.43,0,1,1,57,12,10.43,10.43,0,0,1,46.58,22.48Z" transform="translate(0 -0.03)"  /></svg>
